Mono Glyph Icons/misc/misc-unfilled/flourescent.svg

<svg height="48" width="48" xmlns="http://www.w3.org/2000/svg"><path d="m14.25 30.45q-1.95 0-3.325-1.375-1.375-1.375-1.375-3.325v-3.5q0-1.95 1.375-3.35 1.375-1.4 3.325-1.4h19.5q1.95 0 3.35 1.4 1.4 1.4 1.4 3.35v3.5q0 1.95-1.4 3.325-1.4 1.375-3.35 1.375zm9.85-22.1q-.85 0-1.45-.6-.6-.6-.6-1.5v-2.5q0-.85.6-1.45.6-.6 1.45-.6.85 0 1.45.6.6.6.6 1.45v2.5q0 .9-.6 1.5-.6.6-1.45.6zm13.6 4.15q-.6-.65-.6-1.475 0-.825.6-1.475l1.3-1.3q.65-.6 1.475-.6.825 0 1.475.6.6.65.6 1.475 0 .825-.6 1.475l-1.3 1.3q-.65.6-1.475.6-.825 0-1.475-.6zm-13.6 33.8q-.85 0-1.45-.6-.6-.6-.6-1.5v-2.5q0-.85.6-1.45.6-.6 1.45-.6.85 0 1.45.6.6.6.6 1.45v2.5q0 .9-.6 1.5-.6.6-1.45.6zm14.9-6.7-1.3-1.3q-.6-.65-.6-1.475 0-.825.6-1.475.65-.6 1.475-.6.825 0 1.475.6l1.3 1.3q.6.65.6 1.475 0 .825-.6 1.475-.65.6-1.475.6-.825 0-1.475-.6zm-31.65-27.1-1.3-1.3q-.6-.65-.6-1.475 0-.825.6-1.475.65-.6 1.475-.6.825 0 1.475.6l1.3 1.3q.6.65.6 1.475 0 .825-.6 1.475-.65.6-1.475.6-.825 0-1.475-.6zm-1.3 27.1q-.6-.65-.6-1.475 0-.825.6-1.475l1.3-1.3q.65-.6 1.475-.6.825 0 1.475.6.6.65.6 1.475 0 .825-.6 1.475l-1.3 1.3q-.65.6-1.475.6-.825 0-1.475-.6zm8.2-13.85h19.5q0 0 0 0v-3.5q0 0 0 0h-19.5q0 0 0 0v3.5q0 0 0 0zm0 0q0 0 0 0v-3.5q0 0 0 0v3.5q0 0 0 0z"/></svg>

<svg xmlns="http://www.w3.org/2000/svg" height="48" width="48"><path d="M14.25 30.45Q12.3 30.45 10.925 29.075Q9.55 27.7 9.55 25.75V22.25Q9.55 20.3 10.925 18.9Q12.3 17.5 14.25 17.5H33.75Q35.7 17.5 37.1 18.9Q38.5 20.3 38.5 22.25V25.75Q38.5 27.7 37.1 29.075Q35.7 30.45 33.75 30.45ZM24.1 8.35Q23.25 8.35 22.65 7.75Q22.05 7.15 22.05 6.25V3.75Q22.05 2.9 22.65 2.3Q23.25 1.7 24.1 1.7Q24.95 1.7 25.55 2.3Q26.15 2.9 26.15 3.75V6.25Q26.15 7.15 25.55 7.75Q24.95 8.35 24.1 8.35ZM37.7 12.5Q37.1 11.85 37.1 11.025Q37.1 10.2 37.7 9.55L39 8.25Q39.65 7.65 40.475 7.65Q41.3 7.65 41.95 8.25Q42.55 8.9 42.55 9.725Q42.55 10.55 41.95 11.2L40.65 12.5Q40 13.1 39.175 13.1Q38.35 13.1 37.7 12.5ZM24.1 46.3Q23.25 46.3 22.65 45.7Q22.05 45.1 22.05 44.2V41.7Q22.05 40.85 22.65 40.25Q23.25 39.65 24.1 39.65Q24.95 39.65 25.55 40.25Q26.15 40.85 26.15 41.7V44.2Q26.15 45.1 25.55 45.7Q24.95 46.3 24.1 46.3ZM39 39.6 37.7 38.3Q37.1 37.65 37.1 36.825Q37.1 36 37.7 35.35Q38.35 34.75 39.175 34.75Q40 34.75 40.65 35.35L41.95 36.65Q42.55 37.3 42.55 38.125Q42.55 38.95 41.95 39.6Q41.3 40.2 40.475 40.2Q39.65 40.2 39 39.6ZM7.35 12.5 6.05 11.2Q5.45 10.55 5.45 9.725Q5.45 8.9 6.05 8.25Q6.7 7.65 7.525 7.65Q8.35 7.65 9 8.25L10.3 9.55Q10.9 10.2 10.9 11.025Q10.9 11.85 10.3 12.5Q9.65 13.1 8.825 13.1Q8 13.1 7.35 12.5ZM6.05 39.6Q5.45 38.95 5.45 38.125Q5.45 37.3 6.05 36.65L7.35 35.35Q8 34.75 8.825 34.75Q9.65 34.75 10.3 35.35Q10.9 36 10.9 36.825Q10.9 37.65 10.3 38.3L9 39.6Q8.35 40.2 7.525 40.2Q6.7 40.2 6.05 39.6ZM14.25 25.75H33.75Q33.75 25.75 33.75 25.75Q33.75 25.75 33.75 25.75V22.25Q33.75 22.25 33.75 22.25Q33.75 22.25 33.75 22.25H14.25Q14.25 22.25 14.25 22.25Q14.25 22.25 14.25 22.25V25.75Q14.25 25.75 14.25 25.75Q14.25 25.75 14.25 25.75ZM14.25 25.75Q14.25 25.75 14.25 25.75Q14.25 25.75 14.25 25.75V22.25Q14.25 22.25 14.25 22.25Q14.25 22.25 14.25 22.25Q14.25 22.25 14.25 22.25Q14.25 22.25 14.25 22.25V25.75Q14.25 25.75 14.25 25.75Q14.25 25.75 14.25 25.75Z"/></svg>
